**kern
!!!OTL@@DE: Basic 1 3 b7 voicings in 12-bar blues
!!!OMD: Swing!
*clefG2
*I
*k[f#c#g#]
*M4/4
=1
4A 4g 4cc#
4A 4g 4cc#
4A 4g 4cc#
4A 4g 4cc#
=2
4A 4g 4cc#
4A 4g 4cc#
4A 4g 4cc#
4A 4g 4cc#
=3
4A 4g 4cc#
4A 4g 4cc#
4A 4g 4cc#
4A 4g 4cc#
=4
4A 4g 4cc#
4A 4g 4cc#
4A 4g 4cc#
4A 4g 4cc#
=5
4d 4f# 3cc
4d 4f# 3cc
4d 4f# 3cc
4d 4f# 3cc
=6
4d 4f# 3cc
4d 4f# 3cc
4d 4f# 3cc
4d 4f# 3cc
=7
4A 4g 4cc#
4A 4g 4cc#
4A 4g 4cc#
4A 4g 4cc#
=8
4A 4g 4cc#
4A 4g 4cc#
4A 4g 4cc#
4A 4g 4cc#
=9
4e 4g# 4dd
4e 4g# 4dd
4e 4g# 4dd
4e 4g# 4dd
=10
4d 4f# 4cc
4d 4f# 4cc
4d 4f# 4cc
4d 4f# 4cc
=11
4A 4g 4cc#
4A 4g 4cc#
4A 4g 4cc#
4A 4g 4cc#
=12
4A 4g 4cc#
4A 4g 4cc#
4A 4g 4cc#
4A 4g 4cc#
==
*-
